icons/svg/shields/h_barrier_entrance_small_shield.svg

<?xml version="1.0" encoding="UTF-8" standalone="no"?>
<!-- Created with Inkscape (http://www.inkscape.org/) -->

<svg
   xmlns:dc="http://purl.org/dc/elements/1.1/"
   xmlns:cc="http://creativecommons.org/ns#"
   xmlns:rdf="http://www.w3.org/1999/02/22-rdf-syntax-ns#"
   xmlns:svg="http://www.w3.org/2000/svg"
   xmlns="http://www.w3.org/2000/svg"
   xmlns:sodipodi="http://sodipodi.sourceforge.net/DTD/sodipodi-0.dtd"
   xmlns:inkscape="http://www.inkscape.org/namespaces/inkscape"
   version="1.0"
   width="16"
   height="16"
   id="svg2"
   sodipodi:version="0.32"
   inkscape:version="0.91 r"
   sodipodi:docname="h_barrier_entrance_small_shield.svg"
   inkscape:output_extension="org.inkscape.output.svg.inkscape">
  <metadata
     id="metadata10">
    <rdf:RDF>
      <cc:Work
         rdf:about="">
        <dc:format>image/svg+xml</dc:format>
        <dc:type
           rdf:resource="http://purl.org/dc/dcmitype/StillImage" />
        <cc:license
           rdf:resource="http://web.resource.org/cc/PublicDomain" />
        <dc:language>en</dc:language>
        <dc:title />
      </cc:Work>
    </rdf:RDF>
  </metadata>
  <sodipodi:namedview
     inkscape:window-height="1004"
     inkscape:window-width="1920"
     inkscape:pageshadow="2"
     inkscape:pageopacity="0.0"
     guidetolerance="10.0"
     gridtolerance="10.0"
     objecttolerance="10.0"
     borderopacity="1.0"
     bordercolor="#666666"
     pagecolor="#ffffff"
     id="base"
     showgrid="false"
     inkscape:zoom="22.627417"
     inkscape:cx="3.6146298"
     inkscape:cy="10.170989"
     inkscape:window-x="1680"
     inkscape:window-y="0"
     inkscape:current-layer="svg2"
     inkscape:window-maximized="1" />
  <defs
     id="defs4">
    <inkscape:perspective
       sodipodi:type="inkscape:persp3d"
       inkscape:vp_x="0 : 290 : 1"
       inkscape:vp_y="0 : 1000 : 0"
       inkscape:vp_z="580 : 290 : 1"
       inkscape:persp3d-origin="290 : 193.33333 : 1"
       id="perspective12" />
    <style
       type="text/css"
       id="style6">
   
    .fil0 {fill:#EF7900}
   
  </style>
    <inkscape:perspective
       id="perspective6807"
       inkscape:persp3d-origin="29.116032 : 19.410688 : 1"
       inkscape:vp_z="58.232063 : 29.116032 : 1"
       inkscape:vp_y="0 : 1000 : 0"
       inkscape:vp_x="0 : 29.116032 : 1"
       sodipodi:type="inkscape:persp3d" />
    <inkscape:perspective
       id="perspective6954"
       inkscape:persp3d-origin="290 : 193.33333 : 1"
       inkscape:vp_z="580 : 290 : 1"
       inkscape:vp_y="0 : 1000 : 0"
       inkscape:vp_x="0 : 290 : 1"
       sodipodi:type="inkscape:persp3d" />
    <inkscape:perspective
       id="perspective2541"
       inkscape:persp3d-origin="240 : 160 : 1"
       inkscape:vp_z="480 : 240 : 1"
       inkscape:vp_y="0 : 1000 : 0"
       inkscape:vp_x="0 : 240 : 1"
       sodipodi:type="inkscape:persp3d" />
    <inkscape:perspective
       id="perspective2750"
       inkscape:persp3d-origin="215 : 143.33333 : 1"
       inkscape:vp_z="430 : 215 : 1"
       inkscape:vp_y="0 : 1000 : 0"
       inkscape:vp_x="0 : 215 : 1"
       sodipodi:type="inkscape:persp3d" />
    <inkscape:perspective
       id="perspective3730"
       inkscape:persp3d-origin="88.929146 : 101.19778 : 1"
       inkscape:vp_z="177.85829 : 151.79668 : 1"
       inkscape:vp_y="0 : 1000 : 0"
       inkscape:vp_x="0 : 151.79668 : 1"
       sodipodi:type="inkscape:persp3d" />
  </defs>
  <path
     style="color:#000000;font-style:normal;font-variant:normal;font-weight:normal;font-stretch:normal;font-size:medium;line-height:normal;font-family:Sans;-inkscape-font-specification:Sans;text-indent:0;text-align:start;text-decoration:none;text-decoration-line:none;letter-spacing:normal;word-spacing:normal;text-transform:none;direction:ltr;block-progression:tb;writing-mode:lr-tb;baseline-shift:baseline;text-anchor:start;display:inline;overflow:visible;visibility:visible;opacity:0.8479996;fill:#f1eae4;fill-opacity:1;fill-rule:nonzero;stroke:none;stroke-width:6.74431086;marker:none;enable-background:accumulate"
     d="m 7.8997878,3.1663765 c 0.03517,0 -0.1568879,0.022649 -0.1785798,0.022323 -0.00267,-4.03e-5 -0.02663,4.905e-4 -0.022322,0 -0.1212412,0.00714 -0.2415659,0.029704 -0.3571596,0.066967 0.027182,-0.00914 -0.1602733,0.055989 -0.1339348,0.044645 0.026338,-0.011344 -0.1592516,0.080439 -0.1339349,0.066967 0.025317,-0.013471 -0.1580585,0.1047966 -0.1339348,0.08929 0.024124,-0.015507 -0.1343796,0.1067272 -0.1116124,0.08929 0.022767,-0.017437 -0.1551916,0.1085398 -0.1339349,0.08929 0.021257,-0.01925 -0.1088921,0.1325446 -0.08929,0.1116124 0.019602,-0.020932 -0.1294275,0.1340851 -0.1116123,0.1116124 0.017815,-0.022473 -0.1051974,0.1354736 -0.08929,0.1116123 0.015907,-0.023861 -0.08086,0.1590231 -0.066968,0.1339349 0.013892,-0.025088 -0.07875,0.1600802 -0.066967,0.1339349 0.011783,-0.026145 -0.076561,0.1609602 -0.066967,0.1339348 0.00959,-0.027025 -0.051984,0.1839799 -0.044645,0.1562573 0.00377,-0.014236 -0.012358,0.021989 -0.022323,0.066968 -0.00112,-5.291e-4 -0.026113,-7.644e-4 -0.022322,0 0.032684,0.00656 -0.1010922,-0.01109 -0.1785798,-0.022323 0.011763,0.00125 -0.034489,0.00151 -0.066967,0 C 5.8022816,4.5696209 5.7104101,4.55037 5.7345077,4.55037 c 0.028041,0 -0.1027811,0.020322 -0.1562573,0.022322 -0.01504,5.627e-4 -0.052487,8.357e-4 -0.044645,0 C 5.4356914,4.577642 5.3382879,4.59263 5.2434132,4.617337 5.2808952,4.606665 5.0064995,4.699203 5.0425109,4.684304 5.0785223,4.6694065 4.829865,4.792523 4.8639311,4.7735948 4.8979973,4.7546665 4.6536795,4.9079157 4.6853513,4.8852071 4.7170232,4.8624986 4.4779116,5.0453314 4.5067715,5.019142 4.5356314,4.9929526 4.3248466,5.2047244 4.3505142,5.1753993 4.3761818,5.1460742 4.2167651,5.3860532 4.2389018,5.3539791 4.2610386,5.3219051 4.1089753,5.5669592 4.1272894,5.5325589 c 0.018314,-0.0344 -0.1035399,0.2371752 -0.08929,0.2009023 0.01425,-0.036273 -0.076966,0.2385696 -0.066967,0.2009023 0.00659,-0.024816 -0.00736,0.063229 -0.022323,0.1339349 l -0.5580619,0 c 0.026368,0.00118 -0.1826365,8.786e-4 -0.1562573,0 0.026379,-8.787e-4 -0.160166,0.025248 -0.1339348,0.022322 0.026231,-0.00293 -0.1598593,0.027278 -0.1339349,0.022323 0.025924,-0.00496 -0.1817182,0.029278 -0.1562573,0.022322 0.025461,-0.00696 -0.1587781,0.053558 -0.1339349,0.044645 0.024843,-0.00891 -0.1580101,0.055462 -0.1339348,0.044645 0.024075,-0.010817 -0.1570965,0.079623 -0.1339349,0.066967 0.023162,-0.012656 -0.1337202,0.1037077 -0.1116124,0.08929 0.022108,-0.014418 -0.1548551,0.08306 -0.1339348,0.066967 0.02092,-0.016093 -0.1312185,0.1292825 -0.1116124,0.1116124 0.019606,-0.01767 -0.1074633,0.1084304 -0.08929,0.08929 0.018173,-0.01914 -0.128243,0.1321076 -0.1116124,0.1116124 0.016631,-0.020495 -0.081955,0.1333382 -0.066967,0.1116124 0.014987,-0.021726 -0.1025431,0.1567598 -0.08929,0.1339348 0.013253,-0.022825 -0.078406,0.1353985 -0.066967,0.1116124 0.011439,-0.023786 -0.076523,0.1585382 -0.066968,0.1339349 0.00956,-0.024603 -0.05226,0.1592064 -0.044645,0.1339348 0.00761,-0.025272 -0.027949,0.1820443 -0.022323,0.1562573 0.00563,-0.025787 -0.025928,0.1600812 -0.022323,0.1339349 0.00361,-0.026146 -0.023885,0.1826048 -0.022322,0.1562573 0.00156,-0.026348 4.903e-4,0.1603241 0,0.1339349 -4.903e-4,-0.026389 0.00254,0.1825285 0,0.1562573 -0.00254,-0.026271 0.026897,0.1599292 0.022322,0.1339349 -0.00457,-0.025994 0.028903,0.1594949 0.022323,0.1339348 -0.00658,-0.02556 0.053192,0.1812287 0.044645,0.1562574 -0.00855,-0.024971 0.07743,0.1581662 0.066967,0.1339348 -0.010463,-0.024231 0.05696,0.1349572 0.044645,0.1116124 -0.012315,-0.023345 0.1033819,0.1562518 0.08929,0.1339348 0.01865,0.037832 0.051872,0.079509 0.044645,0.066967 0.017123,0.025078 0.028357,0.052733 0.022323,0.044645 -0.00346,-0.00464 0.015271,0.013803 0.022322,0.022323 0.00718,0.015009 0.014625,0.029894 0.022323,0.044645 0.023131,0.028696 0.052275,0.053365 0.044645,0.044645 0.014553,0.015206 0.029439,0.030092 0.044645,0.044645 0.03949,0.049327 0.080143,0.1037826 0.066967,0.08929 0.00186,0.00199 0.024646,0.00216 0.022322,0 0.00495,0.00196 0.1633457,0.1815293 0.1339349,0.1562574 -0.031673,-0.027216 0.2133553,0.1793784 0.1785798,0.1562573 -0.034775,-0.023122 0.2382537,0.1302883 0.2009023,0.1116124 -0.037352,-0.018672 0.2625868,0.1032377 0.2232247,0.08929 -0.039362,-0.013951 0.2416792,0.075976 0.2009023,0.066967 -0.040777,-0.00901 0.2871218,0.026258 0.2455472,0.022322 -0.033259,-0.00314 0.121331,-0.00314 0.1785798,0 l 0,0.022323 0.513417,0 c 0.00806,0.051638 0.00346,0.1053566 0,0.08929 -0.00788,-0.036602 0.078835,0.2364086 0.066967,0.2009016 -0.011868,-0.03551 0.082674,0.234886 0.066967,0.200903 -0.015706,-0.03399 0.1086435,0.210627 0.08929,0.178579 -0.019354,-0.03204 0.1567003,0.185978 0.1339349,0.156258 -0.022765,-0.02972 0.1598351,0.18329 0.1339348,0.156257 -0.0259,-0.02703 0.162655,0.180273 0.1339349,0.156257 -0.02872,-0.02402 0.2097701,0.132319 0.1785798,0.111613 -0.03119,-0.02071 0.2118609,0.128757 0.1785798,0.111612 -0.033281,-0.01714 0.2135467,0.102665 0.1785798,0.08929 -0.034967,-0.01337 0.2371296,0.05409 0.2009023,0.04465 -0.036227,-0.0094 0.2379492,0.05004 0.2009023,0.04464 -0.037047,-0.0054 0.2383179,0.0236 0.2009023,0.02232 -0.037415,-0.0013 0.2382315,-0.0029 0.2009022,0 -0.037329,0.0029 0.2376909,-0.02927 0.2009023,-0.02232 -0.016446,0.0031 0.037389,-0.0094 0.08929,-0.02232 0.011758,0.05008 0.027028,0.105291 0.022322,0.08929 -0.010525,-0.03579 0.081257,0.213044 0.066967,0.17858 -0.014289,-0.03447 0.084858,0.211319 0.066967,0.17858 -0.01789,-0.03274 0.132899,0.186897 0.1116124,0.156257 -0.021287,-0.03064 0.1360514,0.184448 0.1116124,0.156258 -0.024439,-0.02819 0.1835688,0.181674 0.1562573,0.156257 -0.027311,-0.02541 0.1638061,0.133965 0.1339349,0.111612 -0.029871,-0.02235 0.2106687,0.130645 0.1785798,0.111613 -0.032089,-0.01903 0.1901963,0.104784 0.1562573,0.08929 -0.033939,-0.01549 0.2363027,0.07875 0.2009023,0.06697 -0.0354,-0.01178 0.2150362,0.0749 0.1785798,0.06697 -0.036457,-0.0079 0.2379972,0.02631 0.2009023,0.02232 -0.037095,-0.004 0.2382108,0.02232 0.2009023,0.02232 -0.037309,0 0.2156747,-0.02631 0.1785798,-0.02232 -0.037095,0.004 0.2373587,-0.03025 0.2009023,-0.02232 -0.036457,0.0079 0.2139801,-0.07875 0.1785798,-0.06697 -0.0354,0.01178 0.2348412,-0.08246 0.2009022,-0.06697 -0.033939,0.01549 0.1883462,-0.108323 0.1562574,-0.08929 -0.032089,0.01903 0.208451,-0.133965 0.1785798,-0.111613 -0.029871,0.02235 0.1612463,-0.137029 0.1339348,-0.111612 -0.0078,0.0073 0.027259,-0.02628 0.044645,-0.04464 l 2.0001121,0.0078 c 0.756747,0.980832 2.547517,0.474266 2.598319,-1.369484 l 0,-5.9154556 -0.02232,0 c -0.0019,-0.0247 -0.0025,-0.1867866 0,-0.1562573 0.0029,0.03489 -0.02868,-0.2130064 -0.02232,-0.1785798 0.0064,0.034427 -0.05442,-0.2121952 -0.04464,-0.1785798 0.0098,0.033615 -0.05775,-0.211045 -0.04465,-0.1785798 0.0131,0.032465 -0.10558,-0.2095674 -0.08929,-0.1785798 0.01629,0.030988 -0.108606,-0.1854548 -0.08929,-0.1562573 0.01932,0.029196 -0.133759,-0.1610499 -0.111613,-0.133937 0.02214,0.027113 -0.158689,-0.1586897 -0.133934,-0.1339349 0.02476,0.024755 -0.161048,-0.1560819 -0.133935,-0.1339348 0.02712,0.022147 -0.163133,-0.1309285 -0.133935,-0.1116124 0.02919,0.019316 -0.187245,-0.10558 -0.156257,-0.08929 0.03099,0.01629 -0.211045,-0.1023899 -0.17858,-0.08929 0.03247,0.0131 -0.212195,-0.054423 -0.17858,-0.044645 0.03362,0.00978 -0.213006,-0.051002 -0.17858,-0.044645 0.03442,0.00636 -0.213471,-0.025194 -0.17858,-0.022323 0.03053,0.00251 -0.131557,0.00194 -0.156257,0 l 0,-0.022323 -4.0180472,0 c -0.015837,-0.00117 -0.053317,0 -0.044645,0 z"
     id="path4953-2"
     inkscape:connector-curvature="0"
     sodipodi:nodetypes="scccssssssssssssccccssccsssssssscccssssssssssssssssscccssccsssccsccccccsccccccccccccccscccsccsccccccccccccccscsccccccccccssssccccccssscccccs" />
  <g
     id="g2319"
     transform="matrix(0.0275932,0,0,0.0275932,24.26246,0.98778442)">
    <path
       inkscape:connector-curvature="0"
       id="path2323"
       style="fill:#ffffff;stroke:none"
       d="" />
  </g>
  <g
     id="g2325"
     transform="matrix(0.0275932,0,0,0.0275932,24.26246,0.98778442)">
    <path
       inkscape:connector-curvature="0"
       id="path2329"
       style="fill:#ffffff;stroke:none"
       d="" />
  </g>
</svg>

<svg width="16" height="16" viewBox="0 0 16 16" fill="none" xmlns="http://www.w3.org/2000/svg">
<path opacity="0.848" d="M7.89979 3.16636C7.93496 3.16636 7.7429 3.18901 7.72121 3.18868C7.71854 3.18864 7.69458 3.18917 7.69889 3.18868C7.57765 3.19582 7.45732 3.21839 7.34173 3.25565C7.36891 3.24651 7.18146 3.31164 7.2078 3.3003C7.23413 3.28895 7.04854 3.38074 7.07386 3.36726C7.09918 3.35379 6.9158 3.47206 6.93993 3.45655C6.96405 3.44105 6.80555 3.56328 6.82831 3.54584C6.85108 3.52841 6.67312 3.65438 6.69438 3.63513C6.71564 3.61588 6.58549 3.76768 6.60509 3.74675C6.62469 3.72581 6.47566 3.88083 6.49348 3.85836C6.51129 3.83589 6.38828 3.99383 6.40419 3.96997C6.42009 3.94611 6.32333 4.12899 6.33722 4.10391C6.35111 4.07882 6.25847 4.26399 6.27025 4.23784C6.28204 4.2117 6.19369 4.3988 6.20329 4.37178C6.21288 4.34475 6.1513 4.55576 6.15864 4.52803C6.16241 4.5138 6.14628 4.55002 6.13632 4.595C6.1352 4.59447 6.1102 4.59424 6.114 4.595C6.14668 4.60156 6.0129 4.58391 5.93542 4.57268C5.94718 4.57393 5.90093 4.57419 5.86845 4.57268C5.80229 4.56961 5.71041 4.55036 5.73451 4.55036C5.76255 4.55036 5.63173 4.57068 5.57826 4.57268C5.56322 4.57324 5.52577 4.57351 5.53361 4.57268C5.4357 4.57763 5.33829 4.59262 5.24342 4.61732C5.2809 4.60665 5.0065 4.69919 5.04252 4.68429C5.07853 4.66939 4.82987 4.79251 4.86394 4.77358C4.898 4.75465 4.65368 4.9079 4.68536 4.88519C4.71703 4.86248 4.47792 5.04532 4.50678 5.01913C4.53564 4.99294 4.32485 5.20471 4.35052 5.17538C4.37619 5.14606 4.21677 5.38604 4.23891 5.35396C4.26104 5.32189 4.10898 5.56694 4.12729 5.53254C4.14561 5.49814 4.02375 5.76972 4.038 5.73345C4.05225 5.69717 3.96104 5.97202 3.97104 5.93435C3.97763 5.90953 3.96368 5.99758 3.94871 6.06828H3.39065C3.41702 6.06946 3.20802 6.06916 3.23439 6.06828C3.26077 6.0674 3.07423 6.09353 3.10046 6.09061C3.12669 6.08768 2.9406 6.11788 2.96653 6.11293C2.99245 6.10797 2.78481 6.14221 2.81027 6.13525C2.83573 6.12829 2.65149 6.18881 2.67633 6.1799C2.70118 6.17099 2.51832 6.23536 2.5424 6.22454C2.56647 6.21372 2.3853 6.30416 2.40846 6.29151C2.43163 6.27885 2.27474 6.39521 2.29685 6.3808C2.31896 6.36638 2.142 6.46386 2.16292 6.44776C2.18384 6.43167 2.0317 6.57705 2.0513 6.55938C2.07091 6.54171 1.94384 6.66781 1.96201 6.64867C1.98019 6.62953 1.83377 6.78077 1.8504 6.76028C1.86703 6.73978 1.76845 6.89362 1.78343 6.87189C1.79842 6.85017 1.68089 7.02865 1.69414 7.00583C1.7074 6.983 1.61574 7.14122 1.62718 7.11744C1.63862 7.09365 1.55065 7.27598 1.56021 7.25137C1.56977 7.22677 1.50795 7.41058 1.51556 7.38531C1.52317 7.36004 1.48762 7.56735 1.49324 7.54157C1.49887 7.51578 1.46731 7.70165 1.47092 7.6755C1.47453 7.64935 1.44703 7.85811 1.4486 7.83176C1.45016 7.80541 1.44909 7.99208 1.4486 7.96569C1.44811 7.9393 1.45114 8.14822 1.4486 8.12195C1.44606 8.09568 1.47549 8.28188 1.47092 8.25589C1.46635 8.22989 1.49982 8.41538 1.49324 8.38982C1.48666 8.36426 1.54643 8.57105 1.53789 8.54608C1.52934 8.52111 1.61532 8.70424 1.60485 8.68001C1.59439 8.65578 1.66181 8.81497 1.6495 8.79162C1.63718 8.76828 1.75288 8.94788 1.73879 8.92556C1.75744 8.96339 1.79066 9.00507 1.78343 8.99253C1.80056 9.0176 1.81179 9.04526 1.80576 9.03717C1.8023 9.03253 1.82103 9.05097 1.82808 9.05949C1.83526 9.0745 1.8427 9.08939 1.8504 9.10414C1.87353 9.13284 1.90268 9.1575 1.89505 9.14878C1.9096 9.16399 1.92449 9.17888 1.93969 9.19343C1.97918 9.24276 2.01983 9.29721 2.00666 9.28272C2.00852 9.28471 2.0313 9.28488 2.02898 9.28272C2.03393 9.28468 2.19233 9.46425 2.16292 9.43898C2.13124 9.41176 2.37627 9.61836 2.34149 9.59523C2.30672 9.57211 2.57975 9.72552 2.5424 9.70685C2.50505 9.68817 2.80498 9.81008 2.76562 9.79614C2.72626 9.78219 3.0073 9.87211 2.96652 9.8631C2.92575 9.85409 3.25365 9.88936 3.21207 9.88543C3.17881 9.88229 3.3334 9.88229 3.39065 9.88543V9.90775H3.90407C3.91213 9.95939 3.90753 10.0131 3.90407 9.99704C3.89619 9.96044 3.9829 10.2334 3.97104 10.1979C3.95917 10.1624 4.05371 10.4328 4.038 10.3988C4.0223 10.3649 4.14665 10.6095 4.12729 10.5774C4.10794 10.5454 4.28399 10.7634 4.26123 10.7337C4.23846 10.704 4.42106 10.917 4.39516 10.8899C4.36926 10.8629 4.55782 11.0702 4.5291 11.0462C4.50038 11.0222 4.73887 11.1785 4.70768 11.1578C4.67649 11.1371 4.91954 11.2866 4.88626 11.2694C4.85298 11.2523 5.0998 11.3721 5.06484 11.3587C5.02987 11.3453 5.30197 11.4128 5.26574 11.4034C5.22951 11.394 5.50369 11.4534 5.46664 11.448C5.42959 11.4426 5.70496 11.4716 5.66754 11.4703C5.63013 11.469 5.90577 11.4674 5.86845 11.4703C5.83112 11.4732 6.10614 11.441 6.06935 11.448C6.0529 11.4511 6.10674 11.4386 6.15864 11.4257C6.1704 11.4758 6.18567 11.531 6.18096 11.515C6.17043 11.4792 6.26222 11.728 6.24793 11.6935C6.23364 11.6591 6.33278 11.9049 6.31489 11.8721C6.297 11.8394 6.44779 12.059 6.42651 12.0284C6.40522 11.9977 6.56256 12.2128 6.53812 12.1846C6.51368 12.1565 6.72169 12.3663 6.69438 12.3409C6.66706 12.3155 6.85818 12.4749 6.82831 12.4525C6.79844 12.4302 7.03898 12.5832 7.00689 12.5641C6.9748 12.5451 7.19709 12.6689 7.16315 12.6534C7.12921 12.6379 7.39945 12.7322 7.36405 12.7204C7.32865 12.7086 7.57909 12.7953 7.54263 12.7874C7.50617 12.7795 7.78063 12.8137 7.74353 12.8097C7.70644 12.8057 7.98174 12.832 7.94443 12.832C7.90713 12.832 8.16011 12.8057 8.12301 12.8097C8.08592 12.8137 8.36037 12.7794 8.32392 12.7874C8.28746 12.7953 8.5379 12.7086 8.5025 12.7204C8.4671 12.7322 8.73734 12.6379 8.7034 12.6534C8.66946 12.6689 8.89175 12.5451 8.85966 12.5641C8.82757 12.5832 9.06811 12.4302 9.03824 12.4525C9.00836 12.4749 9.19948 12.3155 9.17217 12.3409C9.16437 12.3482 9.19943 12.3146 9.21682 12.2963L11.2169 12.3041C11.9737 13.2849 13.7644 12.7783 13.8152 10.9346V5.01912H13.7929C13.791 4.99442 13.7904 4.83233 13.7929 4.86286C13.7958 4.89775 13.7642 4.64986 13.7706 4.68428C13.777 4.71871 13.7162 4.47209 13.726 4.5057C13.7358 4.53932 13.6682 4.29466 13.6813 4.32712C13.6944 4.35959 13.5757 4.11756 13.592 4.14855C13.6083 4.17953 13.4834 3.96309 13.5027 3.99229C13.5221 4.02148 13.369 3.83124 13.3911 3.85835C13.4133 3.88546 13.2324 3.69966 13.2572 3.72442C13.2819 3.74917 13.0961 3.56833 13.1233 3.59048C13.1504 3.61263 12.9601 3.45955 12.9893 3.47887C13.0185 3.49818 12.8021 3.37329 12.8331 3.38958C12.8641 3.40587 12.622 3.28719 12.6545 3.30029C12.687 3.31339 12.4423 3.24587 12.4759 3.25564C12.5095 3.26542 12.2629 3.20464 12.2973 3.211C12.3317 3.21736 12.0839 3.1858 12.1187 3.18868C12.1493 3.19119 11.9872 3.19062 11.9625 3.18868V3.16635H7.94444C7.9286 3.16518 7.89112 3.16635 7.89979 3.16635L7.89979 3.16636Z" fill="#F1EAE4"/>
</svg>
